modules/devicons/icons/ghost_small.svg

<?xml version="1.0" encoding="utf-8"?>
<!-- Generated by IcoMoon.io -->
<!DOCTYPE svg PUBLIC "-//W3C//DTD SVG 1.1//EN" "http://www.w3.org/Graphics/SVG/1.1/DTD/svg11.dtd">
<svg version="1.1" xmlns="http://www.w3.org/2000/svg" xmlns:xlink="http://www.w3.org/1999/xlink" width="32" height="32" viewBox="0 0 32 32">
<path fill="#444444" d="M4.859 7.401v2.115h13.256v-4.231h-13.256v2.115zM22.91 7.401v2.115h4.231v-4.231h-4.231v2.115zM4.859 16.427v2.115h22.282v-4.231h-22.282v2.115zM4.859 25.311v1.974h8.744v-3.949h-8.744v1.975zM18.398 25.311v1.974h8.744v-3.949h-8.744v1.975z"></path>
</svg>

<svg xmlns="http://www.w3.org/2000/svg" width="32" height="32" viewBox="0 0 32 32"><path fill="#444" d="M4.859 7.401v2.115h13.256V5.285H4.859V7.4zm18.051 0v2.115h4.231V5.285H22.91V7.4zM4.859 16.427v2.115h22.282v-4.231H4.859v2.115zm0 8.884v1.974h8.744v-3.949H4.859v1.975zm13.539 0v1.974h8.744v-3.949h-8.744v1.975z"/></svg>
